!!!OTL: 11. Dobranoch
!!!Genre:	Dobranoch
!!!Mode:	Minor
!!!Listening/dance:	listening
!!!One_Mode:	no
!!!Orig_tonic: A
**kern
*thru
*I"P1
*clefG2
*k[b-e-]
*g:
*M3/4
*>pickup
!LO:TX:a:i:t=G-minor
(4d
*>A
=1
2g
4a
=2
2b-
4cc
=3
2.dd
=4
2.dd)
=5
(2dd
8ccL
8b-J
=6
2b-
8aL
8gJ
=7
2.b-
=8
2b-)
!!!Begin-Modulation
*g:
!LO:TX:a:i:t=G-minor
=29
2ddn
8ccL
8b-J
=30
2b-
8aL
8gJ
=31
2.g
*>A1
!!!End-Modulation1
=32
2g
4d
*>A
=1
2g
4a
=2
2b-
4cc
=3
2.dd
=4
2.dd)
=5
(2dd
8ccL
8b-J
=6
2b-
8aL
8gJ
=7
2.b-
=8
2b-)
!!!Begin-Modulation
*g:
!LO:TX:a:i:t=G-minor
=29
2ddn
8ccL
8b-J
=30
2b-
8aL
8gJ
=31
2.g
*>A2
!!!End-Modulation1
=32
2g
!!!End-Modulation2
=33:|!
2g
*>B
!!!Begin-Modulation
*g:
!LO:TX:a:i:t=G-minor
=46
2ddn
8ccL
8b-J
=47
2b-
8aL
8gJ
=48
2.g
*>B1
!!!End-Modulation1
=49
2g
*>B
!!!Begin-Modulation
*g:
!LO:TX:a:i:t=G-minor
=46
2ddn
8ccL
8b-J
=47
2b-
8aL
8gJ
=48
2.g
*>B2
!!!End-Modulation2
=50:|!
2g
4r
==
*-
